packages/assets/static/images/icons/log.svg

<svg width="24" height="24" viewBox="0 0 24 24" xmlns="http://www.w3.org/2000/svg">
<path d="M19.875 13.875C19.875 14.0975 19.809 14.315 19.6854 14.5C19.5618 14.685 19.3861 14.8292 19.1805 14.9144C18.975 14.9995 18.7488 15.0218 18.5305 14.9784C18.3123 14.935 18.1118 14.8278 17.9545 14.6705C17.7972 14.5132 17.69 14.3127 17.6466 14.0945C17.6032 13.8762 17.6255 13.65 17.7106 13.4445C17.7958 13.2389 17.94 13.0632 18.125 12.9396C18.31 12.816 18.5275 12.75 18.75 12.75C19.0484 12.75 19.3345 12.8685 19.5455 13.0795C19.7565 13.2905 19.875 13.5766 19.875 13.875ZM23.25 13.875C23.25 17.6597 21.2738 20.625 18.75 20.625H5.25C2.72625 20.625 0.75 17.6597 0.75 13.875C0.75 10.0903 2.72625 7.125 5.25 7.125H8.68969L12.2194 3.59438C12.2891 3.52475 12.3718 3.46954 12.4629 3.4319C12.5539 3.39426 12.6515 3.37492 12.75 3.375H15.75C15.9489 3.375 16.1397 3.45402 16.2803 3.59467C16.421 3.73532 16.5 3.92609 16.5 4.125C16.5 4.32391 16.421 4.51468 16.2803 4.65533C16.1397 4.79598 15.9489 4.875 15.75 4.875H13.0603L10.8103 7.125H18.75C21.2738 7.125 23.25 10.0903 23.25 13.875ZM5.25 19.125H15.8916C15.3593 18.4553 14.9565 17.6923 14.7037 16.875H7.5C7.30109 16.875 7.11032 16.796 6.96967 16.6553C6.82902 16.5147 6.75 16.3239 6.75 16.125C6.75 15.9261 6.82902 15.7353 6.96967 15.5947C7.11032 15.454 7.30109 15.375 7.5 15.375H14.3588C14.2862 14.8783 14.2499 14.377 14.25 13.875C14.25 11.7319 14.8837 9.85313 15.8916 8.625H5.25C4.08094 8.625 3.04219 9.86812 2.55 11.625H9.75C9.94891 11.625 10.1397 11.704 10.2803 11.8447C10.421 11.9853 10.5 12.1761 10.5 12.375C10.5 12.5739 10.421 12.7647 10.2803 12.9053C10.1397 13.046 9.94891 13.125 9.75 13.125H2.28281C2.26156 13.3706 2.25063 13.6206 2.25 13.875C2.25 16.7213 3.62344 19.125 5.25 19.125ZM21.75 13.875C21.75 11.0287 20.3766 8.625 18.75 8.625C17.1234 8.625 15.75 11.0287 15.75 13.875C15.75 16.7213 17.1234 19.125 18.75 19.125C20.3766 19.125 21.75 16.7213 21.75 13.875Z"/>
</svg>

<svg viewBox="0 0 24 24" xmlns="http://www.w3.org/2000/svg" aria-hidden="true" fill="currentColor"><path d="M19.875 13.875a1.125 1.125 0 1 1-2.25 0 1.125 1.125 0 0 1 2.25 0m3.375 0c0 3.785-1.976 6.75-4.5 6.75H5.25c-2.524 0-4.5-2.965-4.5-6.75s1.976-6.75 4.5-6.75h3.44l3.53-3.53a.75.75 0 0 1 .53-.22h3a.75.75 0 1 1 0 1.5h-2.69l-2.25 2.25h7.94c2.524 0 4.5 2.965 4.5 6.75m-18 5.25h10.642a6.9 6.9 0 0 1-1.188-2.25H7.5a.75.75 0 1 1 0-1.5h6.859a10 10 0 0 1-.109-1.5c0-2.143.634-4.022 1.642-5.25H5.25c-1.17 0-2.208 1.243-2.7 3h7.2a.75.75 0 1 1 0 1.5H2.283a9 9 0 0 0-.033.75c0 2.846 1.373 5.25 3 5.25m16.5-5.25c0-2.846-1.373-5.25-3-5.25s-3 2.404-3 5.25 1.373 5.25 3 5.25 3-2.404 3-5.25"/></svg>
